!!!OTL: 208. Den verlorenen Ring suchen.
!!!ARE: Europa, Mitteleuropa, Deutschland, Rheinland
!!!SCT: K2208
!!!TXL: @@DE
!!!YEM: Copyright 1995, estate of Helmut Schaffrath.
**kern	**text	**text
*clefG2	*	*
*M3/4	*	*
*k[]	*	*
*C:	*	*
{8c	1._Trau-	2._Freu-
8e	-er,	-de,
=1	=1	=1
4g	Trau-	Freu-
4e	-er,	-de,
8cc	ü-	ü-
8a	-ber	-ber
=2	=2	=2
4g	Trau-	Freu-
4e}	-er,	-de
{8e	hab'	hab'
8g	ver-	ge-
=3	=3	=3
4f	-lo-	-funden
4d	-ren	.
8g	mei-	mei-
8g	-nen	-nen
=4	=4	=4
2e}	Ring.	Ring!
{8c	Jch	Jch
8e	muß	hab'
=5	=5	=5
4g	ſu-	ſu_chen
4e	-chen,	müſſ'n,
8cc	ich	ich
8a	muß	hab'
=6	=6	=6
4g	krie-	kriechen
4e}	-chen,	müſſ'n,
{8e	bis	bis
8g	ich	ich
=7	=7	=7
4f	fin-	g'fun-
4d	-de	-den
8g	mei-	mei-
16gL	-nen	-nen
16fJ	.	.
=8	=8	=8
2e}	Ring.	Ring.
==	==	==
!!!AGN: Kinder - Lied, Reigen, Tanz - Spiel, Brautwerbung
!!!ONB: ESAC (Essen Associative Code) Database: KINDER
!!!AMT: simple triple
!!!AIN: vox
!!!EED: Helmut Schaffrath
!!!EEV: 1.0
!!!GTL: Zweites Buch. Kinderspiel: 2. Reigen und Tanzspiele. / D. Ringelreigen mit Wahl (Brautwerbung).
!!Rheinlaendisch: Melodie vor 1845.
!!@@COMMENT:"Dieſe pädagogiſche Umbildung mit derſelben Mel. bei Fölſing Rr. 26. Derſelbe Text auch mehrfach mündlich, ʒuletʒt aus Laubenheim (Rahe) und Oberdiebach 
!!durch den Lehrer Fritʒ Nachtigall 1896."
!!@@END:
!!!URL-scan: https://archive.org/details/DeutschesKinderliedUndKinderspiel/page/482/mode/1up
!!!ENC: Anna Maria Matuszewska
!!!EEV: 2024/03/09
*-	*-	*-
